X: 17873
T: Horse With A Heart
R: jig
M: 6/8
K: Dmajor
|:A2 D DEF|ABd B2 A|BEE EGA|~B3 Bcd|
A2 D DEF|ABd B2 A|GAB dAG|FGE D2 B:|
|:Add Bdd|Add AB=c|BEE EGA|~B3 Bcd|
Add Bdd|Add ABA|GAB dAG|FGE D2 B:|

